<?xml version="1.0" encoding="UTF-8"?>
<map version="1.10" tiledversion="1.12.1" orientation="orthogonal" renderorder="right-down" width="30" height="20" tilewidth="32" tileheight="32" infinite="0" nextlayerid="4" nextobjectid="1">
 <tileset firstgid="1" name="map" tilewidth="32" tileheight="32" tilecount="1024" columns="32">
  <image source="../images/map.png" width="1024" height="1024"/>
 </tileset>
 <tileset firstgid="1025" name="Background" tilewidth="32" tileheight="32" tilecount="120" columns="15">
  <image source="../images/Background.png" width="480" height="272"/>
 </tileset>
 <tileset firstgid="1145" name="Buildings" tilewidth="32" tileheight="32" tilecount="144" columns="12">
  <image source="../images/Buildings.png" width="400" height="400"/>
 </tileset>
 <tileset firstgid="1289" name="Props-Rocks" tilewidth="32" tileheight="32" tilecount="90" columns="9">
  <image source="../images/Props-Rocks.png" width="288" height="336"/>
 </tileset>
 <tileset firstgid="1379" name="Tiles" tilewidth="32" tileheight="32" tilecount="144" columns="12">
  <image source="../images/Tiles.png" width="400" height="400"/>
 </tileset>
 <layer id="1" name="sky" width="30" height="20">
  <data encoding="csv">
1025,1026,1027,1028,1029,1030,1031,1032,1033,1034,1035,1036,1037,1038,1039,1025,1026,1027,1028,1029,1030,1031,1032,1033,1034,1035,1036,1037,1038,1039,
1040,1041,1042,1043,1044,1045,1046,1047,1048,1049,1050,1051,1052,1053,1054,1040,1041,1042,1043,1044,1045,1046,1047,1048,1049,1050,1051,1052,1053,1054,
1055,1056,1057,1058,1059,1060,1061,1062,1063,1064,1065,1066,1067,1068,1069,1055,1056,1057,1058,1059,1060,1061,1062,1063,1064,1065,1066,1067,1068,1069,
1070,1071,1072,1073,1074,1075,1076,1077,1078,1079,1080,1081,1082,1083,1084,1070,1071,1072,1073,1074,1075,1076,1077,1078,1079,1080,1081,1082,1083,1084,
1085,1086,1087,1088,1089,1090,1091,1092,1093,1094,1095,1096,1097,1098,1099,1085,1086,1087,1088,1089,1090,1091,1092,1093,1094,1095,1096,1097,1098,1099,
1100,1101,1102,1103,1104,1105,1106,1107,1108,1109,1110,1111,1112,1113,1114,1100,1101,1102,1103,1104,1105,1106,1107,1108,1109,1110,1111,1112,1113,1114,
1100,1101,1102,1103,1104,1105,1106,1107,1108,1109,1110,1111,1112,1113,1114,1100,1101,1102,1103,1104,1105,1106,1107,1108,1109,1110,1111,1112,1113,1114,
1100,1101,1102,1103,1104,1105,1106,1107,1108,1109,1110,1111,1112,1113,1100,1101,1102,1103,1104,1105,1106,1107,1108,1109,1110,1111,1112,1113,1114,1114,
1100,1101,1102,1103,1104,1105,1106,1107,1108,1109,1110,1111,1112,1113,1100,1101,1102,1103,1104,1105,1106,1107,1108,1109,1110,1111,1112,1113,1114,1129,
1100,1101,1102,1103,1104,1105,1106,1107,1108,1109,1110,1111,1112,1113,1100,1101,1102,1103,1104,1100,1101,1102,1103,1104,1105,1106,1107,1108,1109,1110,
1100,1101,1102,1103,1104,1105,1106,1107,1108,1109,1110,1111,1112,1113,1100,1101,1102,1103,1104,1100,1101,1102,1103,1104,1105,1106,1107,1108,1109,1110,
1100,1101,1102,1103,1104,1105,1106,1107,1108,1109,1110,1111,1112,1113,1100,1101,1102,1103,1104,1100,1101,1102,1103,1104,1105,1106,1107,1108,1109,1110,
1100,1101,1102,1103,1104,1105,1106,1107,1108,1109,1110,1111,1112,1113,1100,1101,1102,1103,1104,1100,1101,1102,1103,1104,1105,1106,1107,1108,1109,1110,
1100,1101,1102,1103,1104,1105,1106,1107,1108,1109,1110,1111,1112,1113,1100,1101,1102,1103,1104,1100,1101,1102,1103,1104,1105,1106,1107,1108,1109,1110,
1100,1101,1102,1103,1104,1105,1106,1107,1108,1109,1110,1111,1112,1113,1100,1101,1102,1103,1104,1100,1101,1102,1103,1104,1105,1106,1107,1108,1109,1110,
1100,1101,1102,1103,1104,1105,1106,1107,1108,1109,1110,1111,1112,1113,1100,1101,1102,1103,1104,1100,1101,1102,1103,1104,1105,1106,1107,1108,1109,1110,
1100,1101,1102,1103,1104,1105,1106,1107,1108,1109,1110,1111,1112,1113,1100,1101,1102,1103,1104,1100,1101,1102,1103,1104,1105,1106,1107,1108,1109,1110,
1100,1101,1102,1103,1104,1105,1106,1107,1108,1109,1110,1111,1112,1113,1100,1101,1102,1103,1104,1100,1101,1102,1103,1104,1105,1106,1107,1108,1109,1110,
1115,1116,1117,1118,1119,1120,1121,1122,1123,1124,1125,1126,1127,1128,1100,1101,1102,1103,1104,1100,1101,1102,1103,1104,1105,1106,1107,1108,1109,1110,
1130,1131,1132,1133,1134,1135,1136,1137,1138,1139,1140,1141,1142,1143,1100,1101,1102,1103,1104,1100,1101,1102,1103,1104,1105,1106,1107,1108,1109,1110
</data>
 </layer>
 <layer id="2" name="ground" width="30" height="20">
  <data encoding="csv">
0,0,0,0,0,0,0,0,0,0,0,0,0,0,0,0,0,0,0,0,0,0,0,0,0,0,0,0,0,0,
0,0,0,0,0,0,0,0,0,0,0,0,0,0,0,0,0,0,0,0,0,0,0,0,0,0,0,0,0,0,
0,0,0,0,0,0,0,0,0,0,0,0,0,0,0,0,0,0,0,0,0,0,0,0,0,0,0,0,0,0,
0,0,0,0,0,0,0,0,0,0,0,0,0,0,0,0,0,0,0,0,0,0,0,0,0,0,0,0,0,0,
0,0,0,0,0,0,0,0,0,0,0,0,0,0,0,0,0,0,0,0,0,0,0,0,0,0,0,0,0,0,
0,0,0,0,0,0,0,0,0,0,0,0,0,0,0,0,0,0,0,0,0,0,0,0,0,0,0,0,0,0,
1379,1380,1380,1380,1380,1380,1380,1380,1380,1380,1380,1380,1380,1380,1380,1380,1380,1380,1380,1380,0,0,0,0,0,0,0,0,0,0,
1391,1392,1392,1392,1392,1392,1392,1392,1392,1392,1392,1392,1392,1392,1392,1392,1392,1392,1392,1392,0,0,0,0,0,0,0,0,0,0,
1391,1441,1441,1441,1441,1441,1441,1441,1441,1441,1441,1441,1441,1441,1441,1441,1441,1441,1441,1441,0,0,0,0,0,0,0,0,0,0,
1391,1441,1441,1441,1441,1441,1441,1441,1441,1441,1441,1441,1441,1441,1441,1441,1441,1441,1441,1441,0,0,0,0,0,0,0,0,0,0,
1391,1441,1441,1441,1441,1441,1441,1441,1441,1441,1441,1441,1441,1441,1441,1441,1441,1441,1441,1441,0,0,0,0,0,0,0,0,0,0,
1391,1441,1441,1441,1441,1441,1441,1441,1441,1441,1441,1441,1441,1441,1441,1441,1441,1441,1441,1441,0,0,0,0,0,0,0,0,0,0,
1391,1441,1441,1441,1441,1441,1441,1441,1441,1441,1441,1441,1441,1441,1441,1441,1441,1441,1441,1441,0,0,0,0,0,0,0,0,0,0,
1391,1441,1441,1441,1441,1441,1441,1441,1441,1441,1441,1441,1441,1441,1441,1441,1441,1441,1441,1441,0,0,0,0,0,0,0,0,0,0,
1391,1441,1441,1441,1441,1441,1441,1441,1441,1441,1441,1441,1441,1441,1441,1441,1441,1441,1441,1441,1441,1441,1441,1441,1441,1441,1441,1441,1441,1441,
1391,1441,1441,1441,1441,1441,1441,1441,1441,1441,1441,1441,1441,1441,1441,1441,1441,1441,1441,1441,1441,1441,1441,1441,1441,1441,1441,1441,1441,1441,
1391,1441,1441,1441,1441,1441,1441,1441,1441,1441,1441,1441,1441,1441,1441,1441,1441,1441,1441,1441,1441,1441,1441,1441,1441,1441,1441,1441,1441,1441,
1391,1441,1441,1441,1441,1441,1441,1441,1441,1441,1441,1441,1441,1441,1441,1441,1441,1441,1441,1441,1441,1441,1441,1441,1441,1441,1441,1441,1441,1441,
1391,1441,1441,1441,1441,1441,1441,1441,1441,1441,1441,1441,1441,1441,1441,1441,1441,1441,1441,1441,1441,1441,1441,1441,1441,1441,1441,1441,1441,1441,
1391,1441,1441,1441,1441,1441,1441,1441,1441,1441,1441,1441,1441,1441,1441,1441,1441,1441,1441,1441,1441,1441,1441,1441,1441,1441,1441,1441,1441,1441
</data>
 </layer>
</map>
